website/public/Images/logos/percona_white.svg

<svg width="29" height="28" viewBox="0 0 29 28" fill="none" xmlns="http://www.w3.org/2000/svg">
<g clip-path="url(#clip0)">
<path d="M14.9551 0.0644531C7.22314 0.0644531 0.955078 6.31797 0.955078 14.0321C0.955078 18.8577 3.40803 23.1115 7.13761 25.6207V14.0394C7.1375 14.0217 7.13509 14.0046 7.13509 13.9871C7.13509 13.9694 7.1375 13.9523 7.13761 13.9346V13.8364H7.14231C7.21898 9.34007 10.679 5.71855 14.9433 5.71855C19.2556 5.71855 22.7513 9.42049 22.7513 13.9871C22.7513 18.5535 19.2556 22.2555 14.9433 22.2555C13.2637 22.2555 11.712 21.6885 10.4384 20.7332V27.2523C11.8559 27.7344 13.3741 27.9997 14.9551 27.9997C22.687 27.9997 28.9551 21.7462 28.9551 14.0321C28.9551 6.31797 22.687 0.0644531 14.9551 0.0644531Z" fill="white"/>
<path d="M19.6798 14.276C19.6798 16.9181 17.5882 19.0599 15.008 19.0599C12.4279 19.0599 10.3362 16.9181 10.3362 14.276C10.3362 11.634 12.4279 9.49219 15.008 9.49219C17.5882 9.49219 19.6798 11.634 19.6798 14.276Z" fill="white"/>
</g>
<defs>
<clipPath id="clip0">
<rect width="28" height="28" fill="white" transform="translate(0.955078)"/>
</clipPath>
</defs>
</svg>

<svg xmlns="http://www.w3.org/2000/svg" width="29" height="28" fill="none" xmlns:v="https://vecta.io/nano"><g clip-path="url(#A)" fill="#fff"><path d="M14.955.064c-7.732 0-14 6.254-14 13.968 0 4.826 2.453 9.079 6.183 11.589V14.039c0-.018-.003-.035-.003-.052s.002-.035.003-.053v-.098h.005c.077-4.496 3.537-8.118 7.801-8.118 4.312 0 7.808 3.702 7.808 8.269s-3.496 8.268-7.808 8.268c-1.68 0-3.231-.567-4.505-1.522v6.519a14 14 0 0 0 4.517.747c7.732 0 14-6.253 14-13.968S22.687.064 14.955.064zm4.725 14.212c0 2.642-2.092 4.784-4.672 4.784s-4.672-2.142-4.672-4.784 2.092-4.784 4.672-4.784 4.672 2.142 4.672 4.784z"/></g><defs><clipPath id="A"><path fill="#fff" transform="translate(.955)" d="M0 0h28v28H0z"/></clipPath></defs></svg>
